X: 234
T: Lianhua lao
%%abc-version 2.0
%%abcx-abcm2ps-target-version 5.9.1 (29 Sep 2008)
%%abc-creator hum2abc beta
%%abcx-conversion-date 2013/10/02 07:52:29
%%abc-edited-by Helmut Schaffrath
%%humdrum-veritas 2214338616
%%humdrum-veritas-data 1767939827
%%continueall 1
%%barnumbers 0
L: 1/8
M: 2/4
K: G
d Bd2 [I:setbarnb 1]| 
Bd2e | 
B A G E | 
A A A B | 
d4 | 
d e d B | 
A B A G | 
A FE2- | 
E2B B | 
B GA2- | 
A2B A | 
B2E G- | 
G2E E | 
B A G A | 
F ED2- | 
D2E E | 
F EG2- | 
G2E A | 
F ED2- | 
D2z2 |]  



